X:1
T:Title
%%score 1 { 2 | 3 }
L:1/8
Q:1/4=107
M:2/2
K:C
V:1 treble nm="Grand Piano, Soprano"
V:2 bass nm="Choir Pad, Julian, LMD"
V:3 bass 
V:1
 C2 [Ec]2- [Ec][Ec] [EB]2 | E2 [CA]2- [CA][DA] [EG]2 | C2 [CF]2- [CF][B,F] [CE]2 | %3
w: By~Frederick~Charles~Maker~(1844\-1927) * * * *|||
 [DG]2 [DG]2 [D^F]2 [DG]2 | [DG]2 [FA]2- [FA][DB] [Cc]2 | [CG]2 [CG]2 [B,F]2 [CE]2 | %6
w: |||
 [D^F]2 [DG]2- [DG]G [Gd]2 | [GB]2 [GB]2 [^FA]2 G2- | GG G2 G2 G2- | GG [Gd]2 [Gc]2 [GB]2- | %10
w: ||||
 [GB]G G2 G2 G2- | GG [Gf]2 [Ge]2 [Gd]2- | [Gd]2 [Ge]2 [Ge]>[Ge] [Ae]2- | %13
w: |||
 [Ae][Af] [Gd]2 [Gd]2 [Ge]2- | [Ge]2 c2 [_Bc]>[Bc] [Ac]2 | [^Fd]2 [Ge]4 [Gd]2- | [Gd]2 [Gc]6- | %17
w: ||||
 [Gc]4 z4 |] %18
w: |
V:2
 C,2 C2- CC C2 | C2 A,2- A,B, C2 | G,2 A,2- A,G, G,2 | G,2[K:treble] C2 C2 B,2 | %4
 B,2 C2- C[K:bass]G, G,2 | G,2 A,2 G,2 G,2 | A,2 G,2- G,[K:treble]C B,2 | D2 D2 C2[K:bass] B,2- | %8
 B,G, G,2 G,2 G,2- | G,G,[K:treble] F2 E2 D2- | DG,[K:bass] G,2 G,2 G,2- | %11
 G,G,[K:treble] D2 D2 B,2- | B,2 C2 ^C>C D2- | DD B,2 B,2 C2- | C2 C2 C>C C2 | C2 C2 B,A, B,2 | %16
 F2 E6- | E4 z4 |] %18
V:3
 z2 A,2- A,A, G,2 | G,2 F,2- F,F, E,2 | E,2 D,2- D,D, C,2 | B,,2 A,,2 A,,2 G,,2 | %4
 G,2 F,2- F,F, E,2 | E,2 D,2 G,,2 C,2 | C,2 B,,2- B,,A,,G,,A,, | B,,C, D,2 D,2 G,,2- | G,,4 z4 | %9
 z2 G,2 G,2 G,2- | G,4 z4 | z2 G,2 G,2 G,2- | G,4 A,>A, z2 | z D, G,2 .G,4 | z4 E,>E, F,2 | %15
 A,2 .G,6 | z2 C,6- | C,4 z4 |] %18

